X:709
T:
N:Rundarium (rundál),
S:efter »Florsen» i Burs.
O:Gotland, Burs
R:marsch
M:2/4
L:1/16
K:D
(de)|(fg)(fe) (fg)(ag)|(fe)(dc) d2 AA|(dF)(Ad) (fd)(fa)|
(gf)(ed) e2 (cd)|(edcB) (ABcd)|(edcB) (ABcd)|(edef) (edcd)|
(edcB) A2 z g|(fa)(fd) (eg)(ec)|d2(fe) d2:|

